X:1
T:Dawning of the Day [2]
L:1/8
Q:1/4=120
M:4/4
I:linebreak $
K:F
V:1 treble 
V:1
"^Slow and expressive" AB | c2 dc AGAc | d2 D2 D2 FG | A2 F2 AGFE | F6 G2 | A2 A2 f2 d2 | %6
 e2 dc A2 A2 | d2 e2 f2 e2 | d6 A2 |$ A2 A f2 d2 | e2 dc A2 A2 | d2 de f2 e2 | d6 AB | c2 dc AGAc | %14
 d2 D2 D2 FG | A2 F2 AGFE | F6 || %17
